X: 46
T: No_142_White-haired_Raven.krn
%%abc-version 2.0
%%abcx-abcm2ps-target-version 5.9.1 (29 Sep 2008)
%%abc-creator hum2abc beta
%%abcx-conversion-date 2020/08/10 18:54:57
%%gracespace 0 6 6
%%humdrum-veritas 2456588527
%%humdrum-veritas-data 948595345
%%linebreak <none>
%%barnumbers 0
L: 1/8
M: 7/4
%%staves {1 2}
V: 1 clef=bass
V: 2 clef=bass
K: G
[V:1] D [I:setbarnb 1]| 
[V:2] z | 
[V:1] D2D2D2D2D<B,B,2B,3/B,/ ||  
[V:2] G,,G,,G,,G,,G,,G,,G,,G,,G,,G,,G,,G,,G,,G,, ||  
[V:1] [M:3/4]D2D3B, ||  
[V:2] [M:3/4]z6 ||  
[V:1] [M:5/4]B,2B,4-B,3B, ||  
[V:2] [M:5/4]z8z2 ||  
[V:1] [M:7/4]B,2B,2B,2^A,2A,<G,G,2B,3/B,/ ||  
[V:2] [M:7/4]z14 ||  
[V:1] [M:3/4]B,2B,3^A, ||  
[V:2] [M:3/4]z6 ||  
[V:1] [M:5/4]^A,<G,G,4-G,3G, ||  
[V:2] [M:5/4]z8z2 ||  
[V:1] [M:7/4]G,2G,2G,2G,2G,<E,E,2G,3/G,/ ||  
[V:2] [M:7/4]z14 ||  
[V:1] [M:3/4]G,2G,3E, ||  
[V:2] [M:3/4]z6 ||  
[V:1] [M:5/4]D,2D,4-D,3D, ||  
[V:2] [M:5/4]z8z2 ||  
[V:1] [M:7/4]D,2D,2D,2D,2D,<B,,B,,2D,3/D,/ ||  
[V:2] [M:7/4]z14 ||  
[V:1] [M:3/4]D,2D,3B,, ||  
[V:2] [M:3/4]z6 ||  
[V:1] [M:5/4]B,,2B,,4-B,,4 |]  
[V:2] [M:5/4]z8z2 |]  


